X:1
T:AGNUS DEI
T:Copyright © 1995   D G Mason    dgm@masondg.freeserve.co.uk This edition available for free download & use from http://www.cpdl.org
T:AGNUS DEI
T:Copyright © 1995   D G Mason    dgm@masondg.freeserve.co.uk This edition available for free download &amp; use from http://www.cpdl.org
T:Copyright © 1995   D G Mason    dgm@masondg.freeserve.co.uk This edition available for free download &amp; use from http://www.cpdl.org
T:Copyright © 1995   D G Mason    dgm@masondg.freeserve.co.uk This edition available for free download &amp; use from http://www.cpdl.org
T:Copyright © 1995   D G Mason    dgm@masondg.freeserve.co.uk This edition available for free download &amp; use from http://www.cpdl.org
T:Copyright © 1995   D G Mason    dgm@masondg.freeserve.co.uk This edition available for free download &amp; use from http://www.cpdl.org
T:Copyright © 1995   D G Mason    dgm@masondg.freeserve.co.uk This edition available for free download &amp; use from http://www.cpdl.org
T:Copyright © 1995   D G Mason    dgm@masondg.freeserve.co.uk This edition available for free download &amp; use from http://www.cpdl.org
T:Copyright © 1995   D G Mason    dgm@masondg.freeserve.co.uk This edition available for free download &amp; use from http://www.cpdl.org
T:Copyright © 1995   D G Mason    dgm@masondg.freeserve.co.uk This edition available for free download &amp; use from http://www.cpdl.org
Z:Copyright © 1995   D G Mason    dgm@masondg.freeserve.co.uk
Z:This edition available for free download & use from http://www.cpdl.org
%%score [ ( 1 2 ) ( 3 4 ) ] { ( 5 8 ) | ( 6 7 ) }
L:1/8
M:4/4
K:D
V:1 treble nm="Soprano" snm="S."
V:2 treble 
V:3 bass nm="Bass" snm="B."
V:4 bass 
V:5 treble nm="Harpsichord" snm="Hpsd"
V:8 treble 
V:6 bass 
V:7 bass 
V:1
!mf! z11 ||[Q:1/4=132] D3 D D2 E2 | F6!<(! D2 | F4 G4 | ((A4!<)! B4)) | A2!>(! G2 F2 D2 | %6
w: |Et- in- te- rra-|pax,- ho-|min- i-|bu- *|bo- nae- vo- lun-|
 E4!>)! D2 z2 | z6 D2 | F2 G2 A4 | z6 D>D | F>F G2 A2 d>c | B2 A2 F2 B2 | A2 G2 F2 D2 | %13
w: \-~ta- tis.-|Lau-|da- mus te.-|Be- ne-|\-~di- ci- mus- te.- A- do-|ra- mus- te.- Glo-|\-~ri- fi- ca- mus-|
 (E4- D2)"^piu"!f! z2 | d3 e d2 | c3 B A2 | B4 c2 | d4 F2 | A4 B2 | G3 G F2 | E6 | D4 z2 || %22
w: te _|Gra- ti- as-|a- gi- mus-|ti- bi-|pro- pter-|ma- gnam-|glo- ri- am-|tu-|am.-|
[K:Bb][Q:1/4=112] D2 G2 B2 | B4 A2 | G4 d2 | d4 c2 | z6 | z6 | z6 | z6 | D3 D D2 | G4 G2 | ^F4 A2 | %33
w: Do- mi- ne-|De- us,-|rex- coe-|le- stis,-||||||||
 d3 d c2 |!mp! B4 A4 G4!mf! ^F4 | D2 B2 G2 | e2 d2 c2 | B4 G2 | G4 F2 | f2!>(! B2 c2 | d6!>)! | %41
w: ||Do- mi- ne-|De- * us,-|A- gnus-|De- i,-|||
 B2 z2 A2 | G2 B2 A2 | F2 D2 | (G2 A2) | B4 | B2 G2 | F2 D2 | E4 | D4 A2 | G2 B2 A2 |!<(! F2 D2 | %52
w: |||||||||||
 (G2 A2)!<)! | B4 | (3D2 A2 d2 | c3 d | c2!>(! A2 | B2 G2 | (F2 G2)!>)! | C2 z2 C2 | F2 G2 A2 | %61
w: |||||||||
 B2 d2 | d2- c2 !fermata!d4 |"^meno mosso" A2 G2 | F2 D2 |[Q:1/4=132] E4 ||[K:D] D4 z4 | z8 | z8 | %69
w: ||||||||
 d3 d c2 A2 | B2 (cB) A2 E2 | (d4 c2 A2 | B2 B2 A4 A2) F2 |!<(! G2 B>B A>A F2 | G2 G2!<)! | %75
w: ||||||
 G2 F4 E2 |"^cresc" (F2 G2 A2) G2 | F3 F E2 A2 | B>B c2 d2 c2 | %79
w: ||||
"^al  .   .  .  .  lar  .  .  .  .  gan  .  .  .  .  do" B4 A2 D2 | (E2 F2 G2 F2 | E12 | D8) |] %83
w: ||||
[K:F][Q:1/2=60] D2"^unaccompanied" E2 F2 D2 | F2 G2 A4 | G2 F2 E2 D2 | F2 G2 A4 | A2 G2 F2 D2 | %88
w: |||||
 E4 F4 || d4 c2 A2 | B4 (A4 |!<(! G4 F2 A2 | d4!<)! ^c4 | d2- B2!>(! A2 G2 | F4!>)! E4 || %95
w: |||||||
 E2 F2 G2 F2 | E4 D4 | A2 ^c2 d2 B2 | A4!pp! G4 | D2 E2 F2 A2 |!>(! G4!>)! ^F4 |] %101
w: ||||||
[K:D]"^Intro"!p!"^Voices and organ"[Q:1/4=100] D2 E2 | [DF]2 [CD]2 || F2 G2) | A4 | G2 F2 | E2 D2 | %107
w: ||San- *|ctus,-|San- ctus,-|San- ctus-|
 F2!<(! G2 | (A4 | B4) | A2 G2 | F2 D2 | E8!<)! || d3 e d2 | c2 B2 A2 | B4 c4 | d4 F4 | %117
w: Do- min-|us|_|De- us-|Sa- ba-|\-~oth.-|Ple- ni- sunt-|coe- li- et-|te- rra-|Glo- ria-|
!>(! B4!>)! A4 |S!f!"^sempre" z2 D2 || E2 F2 | G2"^allargando" (F2 | E12 | D8) |] %123
w: Tu- a.-|Ho-|sa- nna-|in- ex-|cel-|sis.-|
[Q:1/4=100] F4"^Voices  ( organ ad lib )" G4 | B4 A4 | z2!<(! E2 | (F2 G2) A2 G2 | F3 F E2 A2 | %128
w: Be- ne-|di- ctus,-|Qui-|ve- * nit- in-|no- mi- ne,- in-|
 B2 c2 d4 | B3 B!<)! A4 z2 D2!D.S.! ||[K:F][Q:1/4=92]"^Voices  ( organ ad lib )" D6 E2 | F4 A2 D2 | %132
w: no- mi- ne-|Do- mi- ni- Ho-|Agn- us-|De- i,- qui-|
 (F4 G4 |!<(! A6) G2 | F2 D2 (F2!<)! G2) |!mf!!>(! A8!>)! | (B4 A2) G2 |!>(! F2 D2 _E4!>)! | %138
w: to- *|llis pe-|cca- ta- mu- *|ndi,|mi- * se-|\-~re- re- no-|
 D6 z2 | z2!<(! D4 E2 | F4 A2 A2 | [Dd]8!<)! | ^c6 A"^-"G | F2 D2 F2 G2 | A4 z4 |!>(! B2 A2 G2 F2 | %146
w: bis.-|Agn- us-|De- i,- qui-|to-|llis- pe- *|cca- ta- mu- *|\-~ndi,|mi- se- re- re-|
 _E4!>)! D2 z2 | z2 d4 D2 | G4 ^F6 A2 ||[K:G] (3d2 d2 d2 c2 A2 |!>(! B4!>)! A4 || %151
w: no- bis.-|Agn- us-|De- i- qui-|to- llis- * pe- ta-|mu- ndi,-|
[K:D] D2 E2"^perdendosi" G2 F2 | (E8 [DF]2 [CE]2 | D8) |] %154
w: Do- na- no- bis-|pa- * *|cem.-|
V:2
 x11 || C2 C2 D2 E2 | D6 D2 | B,4 B,4 | C2 E2 G4 | D2 D2 C2 D2 | (B,2 C2) A,2 x2 | x6 D2 | %8
 B,2 B,2 (D2 C2) | x6 D>D | D>D D2 E2 D>D | G2 E2 D2 G2 | D2 D2 C2 D2 | D2 C2 D2 x2 | A2 F3 ^G | %15
 E2 E2 D2 | D4 F2 | F4 D2 | D4 D2 | B,2 ^A,2 B,2 | (D2 C2 B,2) | A,4 x2 ||[K:Bb] x6 | x6 | x6 | %25
 x6 | x6 | x6 | x6 | x6 | B,3 C B,2 | D4 C2 | D4 D2 | D3 D D2 | D4 D4 B,4 D4 | x6 | x6 | x6 | x6 | %39
 F2 F2 E2 | (D4 C2) | D2 x2 D2 | D2 D2 E2 | C2 D2 | (E2 ^F2) | G4 | D2 E2 | D2 A,2 | (D2 C2) | %49
 B,4 D2 | D2 D2 E2 | C2 D2 | (E2 ^F2) | G4 | (3D2 D2 A2 | G3 F | G2 F2 | D2 E2 | (D2 C2) | %59
 A,2 x2 A,2 | D2 F2 ^F2 | A2 G2 | G4 F4 | F2 E2 | D2 A,2 | (D2 C2) ||[K:D] =B,4 x4 | x8 | x8 | %69
 D3 D E2 E2 | F2 (ED) C2 D2 | F2 ^G2 E2 E2 | F2 ^G2 (G2 F2 E2) D2 | D2 D>D C>C A,2 | F2 (ED) | %75
 C2 C4 =C2 | (E4 ^D2) E2 | E2 ^D2 E2 E2 | G>G G2 F2 E2 | F2 E2 C2 D2 | D2 =C2 B,2 D2 | D4 C4 B,4 | %82
 A,8 |][K:F] D2 D2 D2 D2 | D4 E4 | D2 C2 ^C2 D2 | D2 D2 ^C4 | D2 ^C2 D2 D2 | D4 ^C4 || %89
 [DA]2- [EG]2 [CG]2 [DF]2 | [^C-F]2 [=CE]2 [CE]2 D2 | D2- C2 D2 E2 | A2- G2 E4 | A2 G2 E2 E2 | %94
 D4 ^C4 || ^C2 D2 C2 D2 | D2 ^C2 D4 | E2 G2 F2 F2 | F4 E4 | D2 D2 D2 E2 | D2 C2 A,4 |][K:D] D2 C2 | %102
 B,2 A,2 || D4 | E4 | D2 D2 | (B,C) D2 | D2 D2 | (D2 C2) | (B,2 C2) | D2 C2 | C2 D2 | (D4 C4) || %113
 A2 F2 ^G2 | [C^G]2 [CG]2 [DA]2 | D4 E4 | F4 D4 | B,2- C2 D4 | x2 D2 || E2 D2 | D2 D2 | D4 C4 B,4 | %122
 A,8 |] D4 D4 | D4 C4 | x2 D2 | C4 ^D2 E2 | E3 ^D E2 E2 | A2 G2 F4 | F3 E F4 x2 D2 ||[K:F] D6 D2 | %131
 D4 D2 A,2 | (A,4 D4-) | (D4 ^C2) C2 | D2 A,2 (A,2 G,2) | (D4 ^C4) | (D4 F2) _E2 | D2 A,2 (D2 C2) | %138
 B,6 x2 | x2 D4 ^C2 | D4 D2 E2 | (A4 G4) | [EA]6 (AG) | F2 D2 (F2 G2) | A4 x4 | D2 F2 _E2 D2 | %146
 (D2 C2) B,2 x2 | x2 D4 D2 | (D2 C2) D6 D2 ||[K:G] (3[DA]2 [DG]2 [DF]2 [CG]2 [DF]2 | [DG]4 [DF]4 || %151
[K:D] D2 E2 C2 D2 | D6 B,6 | A,8 |] %154
V:3
!f! DDDD DCA, !tenuto!B,2 !tenuto!A,2 || D3 D B,2 B,2 | A,6 A,2 | D4 D4 | ((C4 B,2) C2) | %5
w: Glo- ri- a- in- ex- cel- sis- De- o.-|||||
 D2 B,2 C2 B,2 | G,4 F,2 z2 | z6!f! A,2 | D2 D2 A,4 | z6 A,>A, | A,>A, B,2 C2 A,>A, | %11
w: ||||||
 D2 C2 B,2 C2 | D2 B,2 C2 B,2 | (G,4- F,2) z2 | F,2 A,2 B,2 | A,2 E,2 F,2 | F,4 ^A,2 | B,4 B,2 | %18
w: |||||||
 A,4 G,2 | D2 C2 D2 | (B,2 A,2 G,2) | F,4!mf! z2 ||[K:Bb]!<(! z6 | z6 | z6 | z6!<)! | F2 B,2 C2 | %27
w: ||||||||De- us- pa-|
 (D2 E2) D2 | (C2 D2) B,2 | A,4!mf! z2 | B,3 A, B,2 | B,4 A,2 | A,4 ^F,2 | G,3 G, ^F,2 | %34
w: \-~ter _ om-|ni- * po-|tens.|Do- mi- ne-|Fi- li-|u- ni-|ge- ni- te,-|
 (G,4 A,2 B,2) (D2 C2) A,4 | z6 | z6 | z6 | z6 | B,2 G,2 A,2 | (G,4 ^F,2) | G,2!mp! z2 B,2 | %42
w: Je- su * Chri- * ste.-|||||Fi- li- us-|Pa- *|\-~tris. Qui-|
 B,2 G,2 C2 | A,2 B,2 | (B,2 C2) | D4 |!p! G,2 B,2 | A,2 B,2 | G,4 |!mp! G,4 B,2 | B,2 G,2 C2 | %51
w: to- llis- pe-|cca- ta-|mu- *|ndi,-|mi- se-|re- re-|no-|\-~bis.- Qui-|to- llis- pe-|
 A,2 B,2 | (B,2 C2) | D4 | (3A,2 B,2 B,2 | B,3 C | B,2 E2 | D2 C2 | B,4 | A,2!mf! z2 G,2 | %60
w: cca- ta-|mu- *|ndi,|su- sci- pe|de- pre-|ca- ti-|o- nem-|no-|stram. Qui-|
 B,2 D2 [CD]2 | D2 B,2 | B,4 B,4 | B,2 B,2 | A,2 B,2 | G,4 ||[K:D] G,4 z4 | z8 |!mf! z8 | %69
w: se- des- ad-|de- xtram-|Pa- tris,-|mi- se-|rer- re-|no-|bis.-|||
 A,3 A, A,2 B,2 | A,2 (F,^G,) A,2 B,2 | (D4 A,2 ^G,2 | C2 D2 (C2 D2 A,2)) A,2 | %73
w: Quo- ni- am- tu-|so- lus _ san- ctus.-|Tu so- lus-|Do- mi- nus. _ _ Tu-|
 E,2 F,>F, E,>E, D,2 | D2 (CB,) | B,2 ^A,4!mf! =A,2 | (=C6 B,2 | =C2 B,2 G,2 ^C2 | D>D E2 A,2 A,2 | %79
w: so- lus- al- ti- ssi- mus-|Je- su _|Chri- ste.- Cum-|Sa- ncto-|Spi- ri- tu- in-|Glo- ri- a- De- i-|
 A,2 ^G,2) A,2!f! F,2 | G,2 A,2 B,2 ^C2 | B,4 A,4 G,4 | F,8 |][K:F]!p! D,2 D,2 D2 C2 | B,4!mp! C4 | %85
w: Pa- * tris.- A-|\-- * * *||men.-|Ky- ri- e- e-|lei- son,-|
 B,2 A,2 G,2 A,2 | A,2 G,2!mf! E,4 | F,2 B,2 A,2 B,2 | B,4!f! A,4 || F,2- G,2 E,2 F,2 | %90
w: Ky- ri- e- e-|le- i- son,-|Ky- ri- e- e-|lei- son.-|Chri- * ste- e-|
 (G,2- C,2) (F,4 | B,2- A,2) A,2 A,2 | F,2- G,2 A,4 | D4 B,2 A,2 | (A,4!mf! ^C4 || %95
w: lei- * son,-|Chri- * ste- e-|lei- * son,-|Chri- ste- e-|lei- son.-|
 B,2 A,2 B,2 A,2 | B,2 A,2)!p! D4 | A,2 E2 D2 D2 | (C2 D2) C4 | B,2 B,2 A,2 A,2 | %100
w: Ky- ri- e- e-|\-~le- i- son,-|Ky- ri- e- e-|le- i- son,-|Ky- ri- e- e-|
 ((F,2 E,2)) D,4 |][K:D] z4 |!p! z4 || (B,2 _B,2) | (D2 C2) | B,2 A,2 | G,2 A,2 | A,2 E,2 | %108
w: le- i- son.-||||||||
 (F,2 E,2) | (F,2 E,2) | F,2 A,2 | ^A,2 B,2 | (B,4 A,4) ||!f! F,2 A,2 B,2 | A,2 E,2 F,2 | %115
w: |||||||
 F,4 ^G,2 ^A,2 | B,4 C4 | D,2- E,2 F,4 | z2 A,2 || B,C A,2 | B,2 (A,2 | B,4 A,4 G,4 | F,8) |] %123
w: ||||||||
!mf! A,4 G,4 | F,4 E,4 |!mp! z2 B,2 | ^A,4 =C2 B,2 | =C2 B,2 E2 ^C2 | D2 E2 B,2 C2 | %129
w: ||||||
 D2 C2 D4"^with organ"!f! z2 A,2 ||[K:F]!p! B,6 B,2 | A,4 F,2 F,2 | (D,4 E,4) | (F,4 E,2) A,2 | %134
w: |||||
 A,2 F,2 (D,2 E,2) | (F,4!mf! E,4) | G,4 B,2 B,2 | A,2 B,2 G,4 | G,6 z2 |!mf! z2 A,4 G,2 | %140
w: ||||||
 A,2- G,2 F,2 A,2 | (F,4 G,4) | A,6!pp! A,G, | F,2 D,2 F,2 G,2 | A,4!mf! z4 | G,2 B,2 B,2 B,2 | %146
w: ||||||
 G,4 G,2 z2 |!f! z2 B,4 A,2 | G,4 A,6 ^F,2 ||[K:G] (3G,2 G,2 G,2 E,2 F,2 | G,4 F,4 || %151
w: |||||
[K:D]!mf! A,2 B,2 G,2 A,2 | (B,4 G,8 | F,8) |] %154
w: |||
V:4
 x11 || D2 C2 B,2 G,2 | D,6 C,2 | B,,4 E,4 | A,,2 G,2 E,4 | F,2 G,2 A,2 B,2 | (E,2 A,,2) D,2 x2 | %7
 x6 C,2 | B,,2 E,2 A,,4 | x6 F,>F, | D,>D, B,,2 A,,2 F,>F, | G,2 A,2 B,2 E,2 | F,2 G,2 A,2 B,2 | %13
 E,2 A,,2 D,2 x2 | B,,2 B,,2 E,2 | A,,2 A,,2 D,2 | G,,4 F,,2 | B,,4 B,2 | F,4 G,2 | E,2 E,2 B,,2 | %20
 (G,,2 A,,4) | D,4 x2 ||[K:Bb] x6 | x6 | x6 | x6 | x6 | x6 | x6 | x6 | G,3 G, G,2 | E,4 E,2 | %32
 D,4 C,2 | B,,3 B,, A,,2 | G,,2 G,2 =F,4 E,4 D,4 | x6 | x6 | x6 | x6 | D,2 D,2 C,2 | (B,,4 A,,2) | %41
 G,,2 x2 F,2 | E,2 E,2 C,2 | D,2 G,2 | (E,2 D,2) | G,4 | G,2 E,2 | B,,2 B,,2 | C,4 | G,4 F,2 | %50
 E,2 E,2 C,2 | D,2 G,2 | (E,2 D,2) | G,4 | (3F,2 F,2 F,2 | E,3 D, | E,2 F,2 | G,2 A,2 | (B,2 E,2) | %59
 F,2 x2 E,2 | B,,2 A,2 A,2 | G,2 G,2 | E,4 B,,4 | D,2 E,2 | B,,2 B,,2 | C,4 ||[K:D] G,4 z4 | x8 | %68
 x8 | F,3 F, A,,2 C,2 | D,2 E,2 F,2 ^G,2 | B,2 E,2 A,2 C,2 | D,2 E,2 F,2 D,2 C,2 D,2 | %73
 B,,2 G,,>G,, A,,>A,, D,2 | E,2 E,2 | F,2 F,4 A,2 | A,2 G,2 F,2 E,2 | A,2 B,2 E,2 G,2 | %78
 F,>F, E,2 D,2 A,,2 | (D,2 E,2) F,2 =C,2 | B,,2 A,,2 E,2 [B,,B,][A,,A,] | [G,,G,]2 [E,,E,]2 A,,8 | %82
 [D,,D,]8 |][K:F] D,2 D,2 C2 C2 | B,4 F,4 | G,2 D,2 E,2 F,2 | B,,4 A,,4 | D,2 E,2 F,2 G,2 | %88
 G,,4 A,,4 || B,,4 A,,2 D,2 | G,,2 C,2 F,,2 B,,2 | [E,,E,]2 A,,2 D,2 C,2 | B,,4 A,,4 | %93
 ^F,2- G,2 ^C,2 C,2 | D,2 F,2 A,4 || G,2 F,2 E,2 D,2 | G,2 A,2 D,4 | C,2 A,,2 B,,2 G,2 | %98
 A,2 B,2 C4 | G,2 G,2 D,2 C,2 | B,,2 C,2 D,4 |][K:D] x4 | x4 || (G,2 E,2) | A,4 | B,,2 D,2 | %106
 G,2 F,2 | D,2 B,,2 | (A,,4 | G,,4) | D,2 E,2 | F,2 G,2 | [A,,G,]8 || B,,4 E,2 | A,,4 D,2 | %115
 G,,4 F,,4 | B,,4 A,,4 | G,,4 [D,,D,]4 | x2 [F,,F,]2 || [G,,G,]2 [F,,F,]2 | [E,,E,]2 [F,,F,]2 | %121
 [G,,G,]2 [E,,E,]2 A,,8 | [D,,D,]8 |] D,4 B,,4 | G,,4 A,,4 | x2 G,2 | (G,2 E,2) F,2 G,2 | %127
 A,2 B,2 E2 G,2 | F,2 E,2 ((B,2 A,2)) | G,2 G,2 D,4 x2 [F,,F,]2 ||[K:F] G,6 G,2 | D,4 D,2 C,2 | %132
 B,,8 | A,,6 A,,2 | D,2 C,2 B,,4 | A,,8 | ((G,4 D,2)) _E,2 | B,,2 B,,2 C,4 | G,6 x2 | x2 F,4 E,2 | %140
 D,4 D,2 C,2 | B,,8 | A,,6 (A,G,) | F,2 D,2 (F,2 G,2) | A,4 x4 | G,2 D,2 _E,2 B,,2 | C,4 G,,2 x2 | %147
 x2 G,4 F,2 | _E,4 D,6 C,2 ||[K:G] (3B,,2 B,,2 B,,2 A,,2 D,2 | G,,2- B,,2 [D,,D,]4 || %151
[K:D] F,,2 G,,2 E,,2 F,,2 | G,,2 E,,2 A,,8 | D,,8 |] %154
V:5
 z11 || D3 D D2 E2 | [DF]6!<(! D2 | F4 G4 | (A4!<)! B4) |!>(! A2 G2 F2 D2 | E4!>)! D4 | %7
 D2 E2 [DF]2 D2 | [B,DF]2 [B,DG]2 [EA]4 | [DG]2 [DF]2 E2 D2 | F2 G2 [CEA]2 d>c | %11
 [DGB]2 [CEA]2 [DF]2 [CGB]2 | [DA]2 [B,DG]2 [CF]2 D2 | E4 D4 | d3 e d2 | c3 B A2 | [DB]4 [Fc]2 | %17
 [Fd]4 F2 | [DA]4 [DB]2 | G3 G F2 | E6 | [F,A,D]4 z2 ||[K:Bb]!mf! d2 B2 G2 | e2 d2 c2 | B2 G2 D2 | %25
 G2 B2 c2 |!f! f4 e2 | d2 c2 B2 | E4 G2 | [^FA]6 | z6 | z6 | z6 | z6 |!mf! z16 | D6 | G6 | G4 B2- | %38
 B4 A2 | z6 | z6 | z6 | z6 | z4 | z4 | z4 | z4 | z4 | z4 | z6 | z6 | z4 | z4 | z4 | z4 | z4 | z4 | %57
 z4 | z4 | z4 [A,C]2 | F2 G2 A2 | B2 d2 | d2 c2!>(! !fermata!d4 | z4 | z4 | z4 || %66
[K:D] z4!>)! z2 [CGB]2 | [DFA]2 [CG]2 [DF]2!>(! D2!>)! | E8 | d4 c2 A2 | B2 cB A2 E2 | %71
 def^g a2 g2 | f2 d2 (A4 A2) F2 | G2 B2 A2 F2 | G2 G2 | G2 F4 E2 | (F2 G2 A2) G2 | F3 F E2 A2 | %78
 [GBd]2 [Gcg]2 [Fdf]2 [Aca]2 | %79
 [Ff]2"^al  .   .  .  .  lar  .  .  .  .  gan  .  .  .  .  do" [Ee][Dd] [Cc]2 D2 | E2 F2 G2 F2 | %81
 E12 | D8 |][K:F] z8 | z8 | z8 | z8 | z8 | z8 || z8 | z8 | z8 | z8 | z8 | z8 || z8 | z8 | z8 | z8 | %99
 z8 | z8 |][K:D] z4 | z4 || z4 | z4 | z4 | z4 | z4 | z4 | z4 | z4 | z4 | z8 || z6 | z6 | z8 | z8 | %117
 z8 | z4 || z4 | z4 | z12 | z8 |] z8 | z8 | z4 | z8 | z8 | z8 | z12 ||[K:F] z8 | z8 | z8 | z8 | %134
 z8 | z8 | z8 | z8 | z8 | z8 | z8 | z8 | z8 | z8 | z8 | z8 | z8 | z8 | z12 ||[K:G] z8 | z8 || %151
[K:D] z8 | z12 | z8 |] %154
V:6
!mf! z11 || D2 C2 B,2 [G,B,]2 | A,6 A,2 | B,,4 E,4 | C4 B,2 C2 | D2 B,2 C2 B,2 | G,4 F,4 | %7
!f! [F,B,]2 [G,C]2 A,2 A,2 | B,,2 E,2 [A,,A,]4 | [B,,B,]2 [D,A,]2 [G,B,]2 [F,A,]2 | %10
 [D,A,]2 [B,,B,]2 [A,,A,]2 [F,,F,]2 | G,2 A,2 B,2 E,2 | F,2 G,2 A,2 B,2 | %13
 [G,B,]4"^piu"!f! [F,A,]4 | F,2 A,2 B,2 | A,2 E,2 F,2 | F,4 ^A,2 | B,4 B,2 | A,4 G,2 | D2 C2 D2 | %20
 B,2 A,2 G,2 | [D,,D,]4 z2 ||[K:Bb] [G,B,D]6 | [G,CE]6 | [G,B,D]6 | B,4 A,2 |!f! B,4 A,2 | %27
 B,2 E2 D2 | G,4 =E2 | [D,D]6 | z6 | z6 | z6 | z6 | z16 | [G,B,]6 | C2 D2 E2 | D6- | D4 C2 | %39
 D,4 C,2 | B,,4 A,,2 | G,,4 z2 | z6 | z4 | z4 | z4 | z4 | z4 | z4 | z6 | z6 | z4 | z4 | z4 | z4 | %55
 z4 | z4 | z4 | z4 |!mf! z4 [E,G,]2 | B,2 D2 [CD]2 | D2 B,2 | B,4 B,4 |"^meno mosso" D,2 E,2 | %64
 B,,4 | C,4 ||[K:D] G,,6!f! [E,,E,]2 | [F,,F,]2 [A,,A,]2 [D,A,]2 [F,,F,A,]2 | G,8 | %69
!mf! A,4 A,2 B,2 | A,2 F,^G, A,2 B,2 | D4 C2 E2 | C2 B,2 F,2 x2 A,4 |!<(! E,2 F,2 E,2 D,2 | %74
 D2 CB,!<)! | B,2 ^A,4 =A,2 | =C6 B,2 | =C2 B,2 G,2 ^C2 | D2 A,6- | A,2 ^G,2!f! A,4 | %80
 G,2 A,2 B,2 C2 | B,4 A,4 G,4 | F,8 |][K:F] z8 | z8 | z8 | z8 | z8 | z8 || z8 | z8 | z8 | z8 | z8 | %94
 z8 || z8 | z8 | z8 | z8 | z8 | z8 |][K:D] z4 | z4 || z4 | z4 | z4 | z4 | z4 | z4 | z4 | z4 | z4 | %112
 z8 || z6 | z6 | z8 | z8 | z8 | z4 || z4 | z4 | z12 | z8 |] z8 | z8 | z4 | z8 | z8 | z8 | z12 || %130
[K:F] z8 | z8 | z8 | z8 | z8 | z8 | z8 | z8 | z8 | z8 | z8 | z8 | z8 | z8 | z8 | z8 | z8 | z8 | %148
 z12 ||[K:G] z8 | z8 ||[K:D] z8 | z12 | z8 |] %154
V:7
 x11 || x8 | D,6 C,2 | x8 | A,,2 G,2 E,4 | F,2 G,2 A,2 B,2 | E,2 A,,2 D,2 C,2 | B,,2 A,,2 D,2 C,2 | %8
 x8 | x8 | x8 | x8 | x8 | E,2 A,,2 D,2 C,2 | B,,4 E,2 | A,,4 D,2 | G,,4 F,,2 | B,,4 B,2 | F,4 G,2 | %19
 E,4 B,,2 | G,,2 A,,4 | x6 ||[K:Bb] x6 | x6 | x6 | E,6 | D,4 C,2 | B,,2 A,,2 B,,2 | C,4 ^C,2 | x6 | %30
 x6 | x6 | x6 | x6 | x16 | x6 | G,6 | G,4 F,2 | E,6 | x6 | x6 | x6 | x6 | x4 | x4 | x4 | x4 | x4 | %48
 x4 | x6 | x6 | x4 | x4 | x4 | x4 | x4 | x4 | x4 | x4 | x6 | B,,2 A,4 | G,4 | E,4 !fermata!B,,4 | %63
 x4 | x4 | x4 ||[K:D] x8 | x8 | G,,4 A,,4 | [F,,F,]4 A,,2 C,2 | D,2 E,2 F,2 ^G,2 | %71
 B,2 E,2 A,2 C,2 | D,2 E,2 F,2 B,,2 C,2 D,2 | B,,2 G,,2 A,,2 D,2 | E,2 E,2 | F,6 A,2 | %76
 A,2 G,2 F,2 E,2 | A,2 B,2 E,2 G,2 | F,2 E,2 D,2 A,,2 | [D,,D,]2 [E,,E,]2 [F,,F,]2 [=C,F,]2 | %80
 B,,2 A,,2 E,2 [B,,B,][A,,A,] | [G,,G,]2 [E,,E,]2 A,,8 | [D,,D,]8 |][K:F] x8 | x8 | x8 | x8 | x8 | %88
 x8 || x8 | x8 | x8 | x8 | x8 | x8 || x8 | x8 | x8 | x8 | x8 | x8 |][K:D] x4 | x4 || x4 | x4 | x4 | %106
 x4 | x4 | x4 | x4 | x4 | x4 | x8 || x6 | x6 | x8 | x8 | x8 | x4 || x4 | x4 | x12 | x8 |] x8 | x8 | %125
 x4 | x8 | x8 | x8 | x12 ||[K:F] x8 | x8 | x8 | x8 | x8 | x8 | x8 | x8 | x8 | x8 | x8 | x8 | x8 | %143
 x8 | x8 | x8 | x8 | x8 | x12 ||[K:G] x8 | x8 ||[K:D] x8 | x12 | x8 |] %154
V:8
 x11 || x8 | x8 | [B,D]8 | C2 E2 G4 | D2 D2 C2 D2 | B,2 C2 A,4 | x8 | x4 D2 C2 | x8 | D4 x2 [EA]2 | %11
 x8 | x8 | D2 C2 D4 | A2 F3 ^G- | [EG]4 D2 | x6 | D6 | x6 | B,2 ^A,2 B,2 | D2 C2 B,2 | x6 || %22
[K:Bb] x6 | x6 | x6 | G4 ^F2 | F6- | F6 | x6 | x6 | x6 | x6 | x6 | x6 | x16 | x6 | x6 | x6 | x6 | %39
 x6 | x6 | x6 | x6 | x4 | x4 | x4 | x4 | x4 | x4 | x6 | x6 | x4 | x4 | x4 | x4 | x4 | x4 | x4 | %58
 x4 | x6 | D2 F2 ^F2 | A2 G2 | G4 F4 | x4 | x4 | x4 ||[K:D] x8 | x8 | [B,D]4 [A,C]4 | D4 E2 E2 | %70
 F2 ED C2 D2 | F2 ^G2 A4 | F2 ^G2 [EG]2 [DF]2 E2 D2 | D2 D2 C2 A,2 | F2 ED | C6 =C2 | %76
 E2 E2 ^D2 E2 | E2 ^D2 E2 E2 | x8 | x8 | D2 =C2 B,2 D2 | D4 C4 B,4 | A,8 |][K:F] x8 | x8 | x8 | %86
 x8 | x8 | x8 || x8 | x8 | x8 | x8 | x8 | x8 || x8 | x8 | x8 | x8 | x8 | x8 |][K:D] x4 | x4 || x4 | %104
 x4 | x4 | x4 | x4 | x4 | x4 | x4 | x4 | x8 || x6 | x6 | x8 | x8 | x8 | x4 || x4 | x4 | x12 | x8 |] %123
 x8 | x8 | x4 | x8 | x8 | x8 | x12 ||[K:F] x8 | x8 | x8 | x8 | x8 | x8 | x8 | x8 | x8 | x8 | x8 | %141
 x8 | x8 | x8 | x8 | x8 | x8 | x8 | x12 ||[K:G] x8 | x8 ||[K:D] x8 | x12 | x8 |] %154

